X:1
T:Title
L:1/8
M:4/4
K:Eb
V:1 treble nm="Grand Piano"
V:1
 z4 z[Q:1/4=100] CEF | G2 A2 F2 E2 | D4- DFFG | A2 B2 A2 G2- | G4- GGAB | cBAG BAGF | A4- ADEA | %7
 GFED ED C2- | C4- Cccd | e2 c2 d2 B2 | c4- cBBc | d2 B2 c2 A2 | G4- GAAG | GFFE EDDC | D4- DDDE | %15
 F2 G2 EDC=B, | C6 z2 |] %17

